svg/megaphone.svg

<svg width="24" height="24" viewBox="0 0 24 24" fill="none" xmlns="http://www.w3.org/2000/svg">
<path d="M17.5019 2.13509C17.8102 2.31401 18 2.64353 18 3V7C19.1848 7 20.2502 7.51635 20.9812 8.33309C21.614 9.0401 22 9.97617 22 11C22 12.0238 21.614 12.9599 20.9812 13.6669C20.2502 14.4836 19.1848 15 18 15V19C18 19.3565 17.8102 19.686 17.5019 19.8649C17.1936 20.0438 16.8134 20.0451 16.5039 19.8682L10 16.1518V21C10 21.5523 9.55228 22 9 22H5C4.44772 22 4 21.5523 4 21V16C2.89543 16 2 15.1046 2 14V8C2 6.89543 2.89543 6 4 6H9.73444L16.5039 2.13176C16.8134 1.9549 17.1936 1.95617 17.5019 2.13509ZM10 14C10.174 14 10.345 14.0454 10.4961 14.1318L16 17.2768V4.72318L10.4961 7.86824C10.345 7.95458 10.174 8 10 8H4V14H10ZM6 16V20H8V16H6ZM18 13C18.5922 13 19.1233 12.7438 19.491 12.3331C19.8083 11.9786 20 11.5129 20 11C20 10.4871 19.8083 10.0214 19.491 9.66691C19.1233 9.25615 18.5922 9 18 9V13Z" fill="#0D0D0D"/>
</svg>

<svg width="24" height="24" fill="none" xmlns="http://www.w3.org/2000/svg"><path d="M17.502 2.135A1 1 0 0118 3v4c1.185 0 2.25.516 2.981 1.333A3.989 3.989 0 0122 11c0 1.024-.386 1.96-1.019 2.667A3.993 3.993 0 0118 15v4a1 1 0 01-1.496.868L10 16.152V21a1 1 0 01-1 1H5a1 1 0 01-1-1v-5a2 2 0 01-2-2V8a2 2 0 012-2h5.734l6.77-3.868a1 1 0 01.998.003zM10 14a1 1 0 01.496.132L16 17.277V4.723l-5.504 3.145A1 1 0 0110 8H4v6h6zm-4 2v4h2v-4H6zm12-3c.592 0 1.123-.256 1.491-.667.317-.354.509-.82.509-1.333s-.192-.979-.509-1.333A1.993 1.993 0 0018 9v4z" fill="#0D0D0D"/></svg>
